X:1
T:La Chaussette
C:Limousin ?
L:1/8
M:2/4
I:linebreak $
K:C
V:1 treble 
V:1
 GG cc | de c2 | dc/B/ AG |1 GB AG :|2 AB c2 |: gf/e/ dc | df ec | gf/e/ dc | dB c2 :| %9
